!!!OTL: 349. Der Trinker und sein Leibarzt.
!!!ODT: 1827 (Mel.)
!!!ARE: Europa, Mitteleuropa, Deutschland, Rheinland; Pfalz
!!!SCT: B0349
!!!TXL: @@DE
!!!YEM: Copyright 1995, estate of Helmut Schaffrath.
**kern	**text
*ICvox	*
*Ivox	*
*clefG2	*
*M6/8	*
*k[]	*
*C:	*
!LO:TX:a:t=Entſchloſſen.	!
{8g	Einſt
=1	=1
8.cc	hat
16c	mir
8c	mein
8c	Leib-
8B	-arʒt
8c	ge-
=2	=2
8e	-bo-
8d	-ten
8r	.
4r}	.
{8d	Stirb,
=3	=3
8.dd	o-
16cc	-der
8b/	ent-
8a	-ſa-
8g	-ge
8f	dem
=4	=4
4e	Wein,
8r	.
4r}	.
{8g	dem
=5	=5
8.cc	wei-
16cc	-ßen
8cc	ſo
8ee	wohl
8dd	als
8cc	dem
=6	=6
(4cc	ro-
8a)	.
4a}	-then,
{8a	ſonſt
=7	=7
8.g	wird
16g	es
8g	dein
8g	Un-
8a	-ter-
8b	-gang
=8	=8
(4.cc	ſein,
8.ddL)	.
16ccJ}	.
{16bL	ſonſt
16aJ	.
=9	=9
8.g	wird
16g	es
8g	dein
8g	Un-
8f	-ter-
8d	-gang
=10	=10
4c	ſein!
8r	.
4r}	.
==	==
!!!AGN: Trink - Lied
!!!GTL: Wein- und Trinklieder
!!!ONB: ESAC (Essen Associative Code) Database: BOEHME
!!!AMT: compound duple
!!!AIN: vox
!!!EED: Helmut Schaffrath
!!!EEV: 1.0
!!@@COMMENT:"Gedicht um 1794 entſtanden, Verfaſſer unbekannt. Ʒuerſt gedruckt in "Akademiſches Luſt-
!!waldlein". Altdorf 1794. Nr. 5; daſſelbe Lied mit dem Anfange: "Jungſt hat mir mein Leibarʒt" rc.
!!iſt in der "Ʒeitung für die elegante Welt" 2. Dec. 1809, Nr. 240 abgedruckt und mit Schubarth
!!unterʒeichnet. Vorſtehende Mel. in Serig's Auswahl. Leipʒig 1827. Jn Kommersbüchern iſt auch die
!!Weiſe: "Ach Mädchen, nur einen Blick" rc. daʒugeſetʒt. Das vielfach gedruckte und abgeſchriebene Lied
!!hat ſich mündlich am Rhein und in der Pfalʒ bis 1890 erhalten."
!!@@END:
!!!URL-scan: https://archive.org/details/BoehmeVtLieder1895/page/n291/mode/2up
!!!ENC: Anna Maria Matuszewska
!!!EEV: 2024/05/07
*-	*-
